img/svg/device/nintendods.svg

<?xml version="1.0" encoding="iso-8859-1"?>
<!-- Generator: Adobe Illustrator 21.0.2, SVG Export Plug-In . SVG Version: 6.00 Build 0)  -->
<svg version="1.1" id="&#x56FE;&#x5C42;_1" xmlns="http://www.w3.org/2000/svg" xmlns:xlink="http://www.w3.org/1999/xlink" x="0px"
	 y="0px" viewBox="0 0 16 16" style="enable-background:new 0 0 16 16;" xml:space="preserve">
<path d="M14.06,9.55c0-0.245-0.232-0.443-0.525-0.462c0.276-0.063,0.483-0.308,0.483-0.604V1.745c0-0.342-0.277-0.62-0.619-0.62
	H2.516c-0.342,0-0.619,0.278-0.619,0.62v6.739c0,0.292,0.203,0.536,0.476,0.601C2.066,9.093,1.82,9.298,1.82,9.55l-0.761,4.858
	c0,0.258,0.255,0.467,0.571,0.467h12.858c0.315,0,0.571-0.208,0.571-0.467L14.06,9.55z M13.739,10.596
	c-0.037,0.109-0.201,0.183-0.367,0.167c-0.167-0.018-0.269-0.119-0.232-0.227c0.036-0.108,0.201-0.183,0.367-0.166
	C13.671,10.386,13.776,10.489,13.739,10.596z M13.185,9.897c0.165,0.017,0.268,0.118,0.231,0.227
	c-0.036,0.109-0.201,0.184-0.366,0.167c-0.166-0.017-0.269-0.119-0.232-0.227C12.855,9.953,13.019,9.879,13.185,9.897z
	 M2.893,10.986h0.435l-0.022,0.299l-0.242,0.219L2.87,11.285L2.893,10.986z M2.348,11.839l0.029-0.409h0.319l0.218,0.212
	l-0.248,0.197H2.348z M3.233,12.285H2.797l0.022-0.299l0.226-0.219l0.21,0.219L3.233,12.285z M3.732,11.839H3.413l-0.219-0.197
	l0.249-0.212h0.319L3.732,11.839z M4.322,13.346l0.342-3.542h6.714l0.323,3.542H4.322z M12.033,7.745H3.99V2.367h8.044V7.745z
	 M12.157,10.361c0.036-0.108,0.201-0.183,0.367-0.166c0.165,0.017,0.269,0.12,0.232,0.227c-0.037,0.109-0.2,0.184-0.367,0.167
	C12.223,10.572,12.12,10.47,12.157,10.361z M12.456,10.858c0.037-0.108,0.201-0.183,0.367-0.167c0.166,0.018,0.269,0.12,0.233,0.227
	c-0.038,0.109-0.201,0.183-0.367,0.167C12.523,11.069,12.419,10.967,12.456,10.858z M13.338,13.224
	c-0.459,0-0.831-0.223-0.831-0.498c0-0.276,0.372-0.499,0.831-0.499c0.458,0,0.83,0.223,0.83,0.499
	C14.169,13,13.797,13.224,13.338,13.224z"/>
</svg>

<svg xmlns="http://www.w3.org/2000/svg" viewBox="0 0 16 16"><title>nintendods</title><path d="M14.06,9.55a.51.51,0,0,0-.52-.46.62.62,0,0,0,.48-.6V1.75a.62.62,0,0,0-.62-.62H2.52a.62.62,0,0,0-.62.62V8.48a.62.62,0,0,0,.48.6.52.52,0,0,0-.55.46l-.76,4.86a.53.53,0,0,0,.57.47H14.49a.53.53,0,0,0,.57-.47Zm-.55.82c.17,0,.27.12.23.23a.35.35,0,0,1-.37.17c-.17,0-.27-.12-.23-.23a.35.35,0,0,1,.37-.17Zm-.69-.31a.35.35,0,0,1,.37-.17c.17,0,.27.12.23.23a.35.35,0,0,1-.37.17c-.17,0-.27-.12-.23-.23ZM2.89,11h.44l0,.3-.24.22-.19-.22Zm-.54.85,0-.41H2.7l.22.21-.25.2Zm.88.45H2.8l0-.3L3,11.77l.21.22Zm.5-.45H3.41l-.22-.2.25-.21h.32Zm.59,1.51L4.66,9.8h6.71l.32,3.54ZM12,7.74H4V2.37h8Zm.12,2.62a.35.35,0,0,1,.37-.17c.17,0,.27.12.23.23a.35.35,0,0,1-.37.17c-.17,0-.27-.12-.23-.23Zm.3.5a.35.35,0,0,1,.37-.17c.17,0,.27.12.23.23a.35.35,0,0,1-.37.17c-.17,0-.27-.12-.23-.23Zm.88,2.37c-.46,0-.83-.22-.83-.5s.37-.5.83-.5.83.22.83.5-.37.5-.83.5Zm0,0"/></svg>
